X: 37877
T: Sound Of The Sun, The
R: jig
M: 6/8
K: Dmixolydian
|:GDG ABB|d2 e dBd|c2B cAA|F2 A FED|
GDG ABB|d2 e dBd|c2A D3|AGG G3:|
|:d3 dBd|g3 dB/c/d|c2 B cAA|f3 fed|
d3 dB/c/d|g3 dBG|c2A FED|AGG G2 B|
d3 dB/c/d|g3 dB/c/d|c2A B2G|A3 FED|
G3 BAG|dB/c/d g2d|c2A D3|AGG G3||

